X: 23
T:Oklahoma Rooster
R:Reel
M:C|
L:1/8
N:Transcribed by Bruce Thomson
K:D
|z6(3dcB|:A2Ac dcde|fefg abaf|e^gaf ecAc|dfed
BAFG|
A2Ac dcde|fefg abaf|e^gaf
ecAc|[1d2ded2(3dcB:|[2d2defg(3agf|]
[b2_e2] [b4_e4]
[b2_e2]-|[b2_e2]BcdcB2|[a2c2][a4c4][a2c2]-|[a2c2]ABcBA2|
[g2d2][g4d4]gg|
fefg abaf|e^gaf ecAc|[1d2e2fg(3agf:|[2d3dd4|]

